X: 35074
T: Rolling In The Ryegrass
R: reel
M: 4/4
K: Dmajor
|:A2 FD DFAF|G2 Bc dBAF|A2 FD DFAF|GBAF E2 D2:|
|:ABde f2 df|e2 de fedB|1 ABde f2 ef|afdf e2 d2:|2 ABde faab|afdf efdB||

